Events/SVG/jenga.svg

<svg height="512pt" viewBox="-34 0 512 512.00107" width="512pt" xmlns="http://www.w3.org/2000/svg" xmlns:xlink="http://www.w3.org/1999/xlink"><linearGradient id="a" gradientTransform="matrix(1.06997 0 0 -1.06997 -34.133654 507.218731)" gradientUnits="userSpaceOnUse" x1="156.8503" x2="464.0351" y1="317.1991" y2="10.0143"><stop offset="0" stop-color="#662d91"/><stop offset=".437" stop-color="#3873b3"/><stop offset="1" stop-color="#00c9dd"/></linearGradient><path d="m8.535156 512h68.265625c4.710938 0 8.53125-3.820312 8.53125-8.53125v-59.734375c-.019531-1.300781-.34375-2.578125-.945312-3.730469l142.199219 71.144532c.101562.050781.21875.066406.332031.117187.109375.054687.316406.113281.476562.171875.960938.367188 1.980469.558594 3.003907.5625h204.800781c4.714843 0 8.53125-3.820312 8.53125-8.53125v-59.734375c0-4.710937-3.820313-8.53125-8.53125-8.53125h-59.734375v-51.203125h59.734375c4.714843 0 8.53125-3.820312 8.53125-8.53125v-179.203125c0-4.710937-3.820313-8.53125-8.53125-8.53125h-59.734375v-51.199219h59.734375c4.714843 0 8.53125-3.824218 8.53125-8.535156v-119.46875c0-4.710938-3.820313-8.53125-8.53125-8.53125h-136.53125c-4.714844 0-8.535157 3.820312-8.535157 8.53125v51.203125h-59.730468c-4.714844 0-8.535156 3.820313-8.535156 8.53125v59.734375c0 4.710938 3.820312 8.53125 8.535156 8.53125h59.730468v51.203125h-59.730468c-4.714844 0-8.535156 3.820313-8.535156 8.53125v229.394531l-149.785157-74.898437c-4.214843-2.105469-9.339843-.398438-11.449219 3.816406 0 .003906-.003906.003906-.003906.007813l-25.601562 51.199218c-2.125 4.207032-.4375 9.339844 3.765625 11.46875.019531.007813.039062.015625.058593.027344l35.933594 17.917969h-66.25c-4.714844 0-8.535156 3.824219-8.535156 8.535156v59.734375c0 4.710938 3.820312 8.53125 8.535156 8.53125zm418.132813-307.199219v42.667969h-187.734375v-42.667969zm-187.734375 162.132813v-42.667969h187.734375v42.667969zm0 68.265625v-51.199219h51.199218v51.199219zm119.464844-170.667969v42.667969h-51.199219v-42.667969zm68.269531 0v42.667969h-51.203125v-42.667969zm-136.535157 42.667969h-51.199218v-42.667969h51.199218zm-51.199218 187.734375v-42.667969h187.734375v42.667969zm119.464844-59.734375h-51.199219v-51.199219h51.199219zm-119.464844-315.734375v-42.664063h187.734375v42.667969h-187.734375zm187.734375-59.730469h-51.203125v-42.667969h51.203125zm-119.46875-42.667969h51.199219v42.667969h-51.199219zm0 119.46875h51.199219v51.199219h-51.199219zm-235.117188 233.316406 145.972657 73.03125c1.191406.550782 2.5.8125 3.8125.765626v46.011718l-167.75-83.875zm-55.015625 82.414063h51.199219v42.667969h-51.199219zm0 0" fill="url(#a)"/></svg>

<svg height="512pt" viewBox="-34 0 512 512.001" width="512pt" xmlns="http://www.w3.org/2000/svg"><linearGradient id="a" gradientTransform="matrix(1.06997 0 0 -1.06997 -34.134 507.219)" gradientUnits="userSpaceOnUse" x1="156.85" x2="464.035" y1="317.199" y2="10.014"><stop offset="0" stop-color="#662d91"/><stop offset=".437" stop-color="#3873b3"/><stop offset="1" stop-color="#00c9dd"/></linearGradient><path d="M8.535 512h68.266c4.71 0 8.531-3.82 8.531-8.531v-59.735a8.331 8.331 0 00-.945-3.73l142.199 71.144c.101.051.219.067.332.118.11.054.316.113.477.171.96.368 1.98.56 3.003.563H435.2a8.53 8.53 0 008.531-8.531v-59.735c0-4.71-3.82-8.53-8.53-8.53h-59.735V384h59.734a8.53 8.53 0 008.531-8.531V196.266c0-4.711-3.82-8.532-8.53-8.532h-59.735v-51.199h59.734c4.715 0 8.531-3.824 8.531-8.535V8.531c0-4.71-3.82-8.531-8.53-8.531H298.667a8.533 8.533 0 00-8.535 8.531v51.203h-59.73a8.533 8.533 0 00-8.536 8.532V128c0 4.71 3.82 8.531 8.535 8.531h59.73v51.203h-59.73a8.533 8.533 0 00-8.535 8.532V425.66L72.082 350.762a8.537 8.537 0 00-11.45 3.816c0 .004-.003.004-.003.008l-25.602 51.2a8.541 8.541 0 003.766 11.468c.02.008.039.016.059.027L74.785 435.2H8.535A8.536 8.536 0 000 443.734v59.735C0 508.179 3.82 512 8.535 512zm418.133-307.2v42.669H238.934V204.8zM238.934 366.935v-42.668h187.734v42.668zm0 68.265V384h51.199v51.2zm119.464-170.668V307.2H307.2v-42.668zm68.27 0V307.2h-51.203v-42.668zM290.133 307.2h-51.2v-42.668h51.2zm-51.2 187.735v-42.668h187.735v42.668zm119.465-59.735H307.2V384h51.2zM238.934 119.465V76.8h187.734v42.668H238.934zm187.734-59.73h-51.203V17.065h51.203zM307.199 17.065h51.2v42.668h-51.2zm0 119.47h51.2v51.198h-51.2zM72.082 369.851l145.973 73.03a8.38 8.38 0 003.812.766v46.012l-167.75-83.875zm-55.016 82.414h51.2v42.668h-51.2zm0 0" fill="url(#a)"/></svg>
